X:27
T: Zwei Koenigskinder
N: A0026A
O: Europa, Mitteleuropa, Deutschland
N: Svenska Folk - Visor, Stockholm 1814-16 No. 30
R: Romanze, Ballade, Lied
M: 3/4
L: 1/4
K: G
G | A_BG | A_BG | A_Bc | d2
c | _BAB | GA_B | A3- | Az
d | d_ed | c_BA | _B3 | A2
A | G2G | DEF | G3- | Gz

@@@ Tune index: 27
